icons/questionnaire-fill.svg

<svg viewBox="0 0 24 24" fill="currentColor" xmlns="http://www.w3.org/2000/svg">
    <path d="M6.45455 19L2 22.5V4C2 3.44772 2.44772 3 3 3H21C21.5523 3 22 3.44772 22 4V18C22 18.5523 21.5523 19 21 19H6.45455ZM11 14V16H13V14H11ZM8.56731 8.81346L10.5288 9.20577C10.6656 8.51823 11.2723 8 12 8C12.8284 8 13.5 8.67157 13.5 9.5C13.5 10.3284 12.8284 11 12 11H11V13H12C13.933 13 15.5 11.433 15.5 9.5C15.5 7.567 13.933 6 12 6C10.302 6 8.88637 7.20919 8.56731 8.81346Z"/>
</svg>

<svg xmlns="http://www.w3.org/2000/svg" viewBox="0 0 24 24">
    <g>
        <path fill="none" d="M0 0h24v24H0z"/>
        <path d="M6.455 19L2 22.5V4a1 1 0 0 1 1-1h18a1 1 0 0 1 1 1v14a1 1 0 0 1-1 1H6.455zM11 14v2h2v-2h-2zM8.567 8.813l1.962.393A1.5 1.5 0 1 1 12 11h-1v2h1a3.5 3.5 0 1 0-3.433-4.187z"/>
    </g>
</svg>
